images_sukapura_svg/cmd/32/zoom100percent.svg

<svg viewBox="0 0 32 32" xmlns="http://www.w3.org/2000/svg" xmlns:xlink="http://www.w3.org/1999/xlink"><linearGradient id="a" gradientUnits="userSpaceOnUse" x1="88" x2="88" y1="12" y2="1"><stop offset="0" stop-color="#0040dd"/><stop offset="1" stop-color="#0a84ff"/></linearGradient><path d="m13 3a10 10 0 0 0 -10 10 10 10 0 0 0 10 10 10 10 0 0 0 6.296875-2.242188l7.322266 7.320313c.391737.391737 1.022325.391737 1.414062 0l.707031-.707031c.391738-.391737.391738-1.022326 0-1.414063l-7.421875-7.419922a10 10 0 0 0 1.681641-5.537109 10 10 0 0 0 -10-10zm.003906 2.0039062a8 8 0 0 1 8 7.9999998 8 8 0 0 1 -8 8 8 8 0 0 1 -7.9999998-8 8 8 0 0 1 7.9999998-7.9999998zm7.470703 14.6210938c-.039771.04485-.078569.090639-.11914.134766a10 10 0 0 0 .11914-.134766zm-.544921.568359c-.057149.055035-.115359.108426-.173829.16211a10 10 0 0 0 .173829-.16211z" fill="#69696e"/><path d="m11 17.499999h2l.0079-7.493394-.01008-.7660838-1.819811 1.6510488c-.135904.121396-.251168.182952-.381392.146536-.124558-.04248-.247896-.217595-.298853-.296502l-.497764-.741604 3-3h1.559322v10.5h1.440678v1.5h-5z" fill="url(#a)"/></svg>

<?xml version="1.0" encoding="UTF-8" standalone="no"?>
<svg
   xmlns:dc="http://purl.org/dc/elements/1.1/"
   xmlns:cc="http://creativecommons.org/ns#"
   xmlns:rdf="http://www.w3.org/1999/02/22-rdf-syntax-ns#"
   xmlns:svg="http://www.w3.org/2000/svg"
   xmlns="http://www.w3.org/2000/svg"
   xmlns:xlink="http://www.w3.org/1999/xlink"
   xmlns:sodipodi="http://sodipodi.sourceforge.net/DTD/sodipodi-0.dtd"
   xmlns:inkscape="http://www.inkscape.org/namespaces/inkscape"
   viewBox="0 0 32 32"
   version="1.1"
   id="svg12"
   sodipodi:docname="zoom100percent.svg"
   inkscape:version="0.92.3 (unknown)"
   inkscape:export-filename="/home/rizmut/Dokumen/Rizmut/Github/libreoffice-style-sukapura/images_sukapura/cmd/32/zoom100percent.png"
   inkscape:export-xdpi="96"
   inkscape:export-ydpi="96">
  <metadata
     id="metadata18">
    <rdf:RDF>
      <cc:Work
         rdf:about="">
        <dc:format>image/svg+xml</dc:format>
        <dc:type
           rdf:resource="http://purl.org/dc/dcmitype/StillImage" />
        <dc:title></dc:title>
      </cc:Work>
    </rdf:RDF>
  </metadata>
  <defs
     id="defs16">
    <linearGradient
       gradientTransform="translate(75,-7)"
       id="a-367"
       gradientUnits="userSpaceOnUse"
       x1="14"
       x2="13.79661"
       y1="22"
       y2="2.1355929">
      <stop
         offset="0"
         stop-color="#0040dd"
         id="stop2206" />
      <stop
         offset="1"
         stop-color="#0a84ff"
         id="stop2208" />
    </linearGradient>
    <linearGradient
       inkscape:collect="always"
       xlink:href="#a-367"
       id="linearGradient909"
       x1="13"
       y1="19"
       x2="13"
       y2="8"
       gradientUnits="userSpaceOnUse" />
  </defs>
  <sodipodi:namedview
     pagecolor="#ffffff"
     bordercolor="#666666"
     borderopacity="1"
     objecttolerance="10"
     gridtolerance="10"
     guidetolerance="10"
     inkscape:pageopacity="0"
     inkscape:pageshadow="2"
     inkscape:window-width="1350"
     inkscape:window-height="691"
     id="namedview14"
     showgrid="true"
     inkscape:snap-global="true"
     inkscape:zoom="8.0000004"
     inkscape:cx="11.316749"
     inkscape:cy="11.789069"
     inkscape:window-x="0"
     inkscape:window-y="0"
     inkscape:window-maximized="0"
     inkscape:current-layer="svg12"
     inkscape:snap-smooth-nodes="true">
    <inkscape:grid
       type="xygrid"
       id="grid828"
       spacingx="0.5"
       spacingy="0.5"
       empspacing="2" />
  </sodipodi:namedview>
  <path
     style="opacity:1;fill:#69696e;fill-opacity:1;stroke:none;stroke-width:1;stroke-linecap:round;stroke-linejoin:round;stroke-miterlimit:4;stroke-dasharray:none;stroke-opacity:0"
     d="M 13 3 A 10 10 0 0 0 3 13 A 10 10 0 0 0 13 23 A 10 10 0 0 0 19.296875 20.757812 L 26.619141 28.078125 C 27.010878 28.469862 27.641466 28.469862 28.033203 28.078125 L 28.740234 27.371094 C 29.131972 26.979357 29.131972 26.348768 28.740234 25.957031 L 21.318359 18.537109 A 10 10 0 0 0 23 13 A 10 10 0 0 0 13 3 z M 13.003906 5.0039062 A 8 8 0 0 1 21.003906 13.003906 A 8 8 0 0 1 13.003906 21.003906 A 8 8 0 0 1 5.0039062 13.003906 A 8 8 0 0 1 13.003906 5.0039062 z M 20.474609 19.625 C 20.434838 19.66985 20.39604 19.715639 20.355469 19.759766 A 10 10 0 0 0 20.474609 19.625 z M 19.929688 20.193359 C 19.872539 20.248394 19.814329 20.301785 19.755859 20.355469 A 10 10 0 0 0 19.929688 20.193359 z "
     id="path856" />
  <path
     inkscape:connector-curvature="0"
     style="fill:url(#linearGradient909);fill-opacity:1"
     d="m 11,17.499999 h 2 L 13.0079,10.006605 12.99782,9.2405212 11.178009,10.89157 c -0.135904,0.121396 -0.251168,0.182952 -0.381392,0.146536 -0.124558,-0.04248 -0.247896,-0.217595 -0.298853,-0.296502 L 10,10 13,7 h 1.559322 V 17.5 H 16 V 19 h -5 z"
     id="path8" />
</svg>
